X: 10
T: The Tap Room
R: reel
M: 4/4
L: 1/8
K: Cmaj
A,2~A,2 EA,B,A,|A,2 EA, B,A,G,B,|A,2~A,2 EA,B,A,|E2 DF EA, A,2|A,2~A,2 EA,B,A,|A,2 EA, B,A,G,B,|A,2~A,2 EA,B,A,|E2 {F} DF EA, A,2|A2 BA eABA | G^FGB d2 BG| A2 BA eABA |G^FGE DA, A,2|A2 BA eABA | G^FGB d2 BG| AB{d}BA G^FGE| D2 B,D EA, A,G,||


Tune 711	Setting 13779

